!! 00000] TT[WS
!!!OTL: diao bing
!!!ARE: Asia, China,ÿShanxi Zuoquan
!! Ethnic Group: Han
!! WI, 188 (1)
!!!SCT: J0223
!!!YEM: Copyright 1995, estate of Helmut Schaffrath.
**kern
*ICvox
*Ivox
*M2/4
*k[]
*C:
{8ee
8ee
8ee
8dd
=1
8ee
8g
4a
=2
8ee
8ee
8ee
8dd
=3
8ee
8g
4a}
=4
{8ee
8ee
8ee
8ee
=5
8cc
8ee
8dd
8dd
=6
8.ee
16g
4a
=7
8cc
8cc
8e
8e
=8
8.d
16c
4d}
==
!!!AGN: Xiaodiao. Fengsuge, Qingge
!!!ONB: ESAC (Essen Associative Code) Database: CHINA
!!!AMT: simple duple
!!!AIN: vox
!!!EED: Helmut Schaffrath
!!!EEV: 1.0
*-
